assets/web/icons/pop-out.svg

<svg width="24" height="24" viewBox="0 0 24 24" fill="none" xmlns="http://www.w3.org/2000/svg">
<path d="M5 3H11C11.5523 3 12 3.44772 12 4C12 4.55228 11.5523 5 11 5H5V19H19V13C19 12.4477 19.4477 12 20 12C20.5523 12 21 12.4477 21 13V19C21 20.1046 20.1046 21 19 21H5C3.89543 21 3 20.1046 3 19V5C3 3.89543 3.89543 3 5 3Z" fill="currentColor"/>
<path d="M15 3H20C20.5523 3 21 3.44772 21 4V9C21 9.55228 20.5523 10 20 10C19.4477 10 19 9.55228 19 9V6.41421L12.7071 12.7071C12.3166 13.0976 11.6834 13.0976 11.2929 12.7071C10.9024 12.3166 10.9024 11.6834 11.2929 11.2929L17.5858 5H15C14.4477 5 14 4.55228 14 4C14 3.44772 14.4477 3 15 3Z" fill="currentColor"/>
</svg>

<svg xmlns="http://www.w3.org/2000/svg" width="24" height="24" fill="currentColor" viewBox="0 0 24 24">
  <path d="M5 3h6a1 1 0 1 1 0 2H5v14h14v-6a1 1 0 1 1 2 0v6a2 2 0 0 1-2 2H5a2 2 0 0 1-2-2V5a2 2 0 0 1 2-2Z"/>
  <path d="M15 3h5a1 1 0 0 1 1 1v5a1 1 0 1 1-2 0V6.414l-6.293 6.293a1 1 0 0 1-1.414-1.414L17.586 5H15a1 1 0 1 1 0-2Z"/>
</svg>
